svg/u1f300.svg

<svg viewBox="0 0 128 128" xmlns="http://www.w3.org/2000/svg">
  <path d="M65.79,57.85c-2.04,2.3-1.21,5.16-0.07,6.57c2.13,2.64,5.29,2.79,6.97,6.12 c1.48,2.93,0.59,8.25-5.96,8.69S53.68,74.35,52.3,68.03c-1.71-7.85,0.63-16.61,9.88-21.1s21.4-2.18,28.11,5.01 c6.94,7.42,11.86,17.04,8.54,30.96s-17.9,25.82-40.73,23.45c-18.8-1.95-36.11-18.96-35.28-44.64c0.81-25.02,21.6-40.36,41.13-43.45 c20.19-3.19,34.42,5.47,42.73,12.08c5.17,4.12,9.62,8.72,10.9,10.13c1.78,1.96,4.48,2.06,4.85-1.08c0.49-4.15-2.09-9.81-8.11-16.91 c-6.02-7.09-23.48-20.88-52.14-18.2C18.08,8.39,2.89,47.62,5.9,72.01s20.3,51.23,60.24,52.07c24.42,0.51,43.29-14.96,49.16-35.43 c3.25-11.33,2.23-25.66-4.64-36.82c-9.23-14.97-19.76-21.05-34.16-22.5c-11.53-1.16-22.47,2.17-29.67,8.64 c-14.7,13.2-15.15,37.01,0.17,48.95c8.09,6.31,17.73,7.47,25.14,5.18c5.09-1.57,9.53-4.28,12.14-9.34c3.1-6.02,2.8-11.93,0.66-16.56 c-1.77-3.84-5.52-7.07-8.79-8.72C71.22,55.01,67.71,55.69,65.79,57.85z" fill="#1F87FD"/>
</svg>

<svg viewBox="0 0 128 128" xmlns="http://www.w3.org/2000/svg">
  <defs/>
  <path d="M65.79,57.85 C63.75,60.15 64.58,63.01 65.72,64.42 C67.85,67.06 71.01,67.21 72.69,70.54 C74.17,73.47 73.28,78.79 66.73,79.23 C60.18,79.67 53.68,74.35 52.3,68.03 C50.59,60.18 52.93,51.42 62.18,46.93 C71.43,42.44 83.58,44.75 90.29,51.94 C97.23,59.36 102.15,68.98 98.83,82.9 C95.51,96.82 80.93,108.72 58.1,106.35 C39.3,104.4 21.99,87.39 22.82,61.71 C23.63,36.69 44.42,21.35 63.95,18.26 C84.14,15.07 98.37,23.73 106.68,30.34 C111.85,34.46 116.3,39.06 117.58,40.47 C119.36,42.43 122.06,42.53 122.43,39.39 C122.92,35.24 120.34,29.58 114.32,22.48 C108.3,15.39 90.84,1.6 62.18,4.28 C18.08,8.39 2.89,47.62 5.9,72.01 C8.91,96.4 26.2,123.24 66.14,124.08 C90.56,124.59 109.43,109.12 115.3,88.65 C118.55,77.32 117.53,62.99 110.66,51.83 C101.43,36.86 90.9,30.78 76.5,29.33 C64.97,28.17 54.03,31.5 46.83,37.97 C32.13,51.17 31.68,74.98 47,86.92 C55.09,93.23 64.73,94.39 72.14,92.1 C77.23,90.53 81.67,87.82 84.28,82.76 C87.38,76.74 87.08,70.83 84.94,66.2 C83.17,62.36 79.42,59.13 76.15,57.48 C71.22,55.01 67.71,55.69 65.79,57.85 Z" fill="#1F87FD"/>
</svg>
